portfolio-htmlcssjs/img/img_flow2.svg

<svg fill="none" height="69" viewBox="0 0 86 69" width="86" xmlns="http://www.w3.org/2000/svg"><path d="m8.6 13.8998c0-4.74343 3.8566-8.6 8.6-8.6h51.6c4.7434 0 8.6 3.85657 8.6 8.6v34.4h-8.6v-34.4h-51.6v34.4h-8.6zm-8.6 41.28c0-1.4244 1.15563-2.58 2.58-2.58h80.84c1.4244 0 2.58 1.1556 2.58 2.58 0 5.6975-4.6225 10.32-10.32 10.32h-65.36c-5.6975 0-10.32-4.6225-10.32-10.32zm37.7594-26.0956-4.1656 4.1656 4.1656 4.1656c1.2631 1.2632 1.2631 3.3057 0 4.5553-1.2631 1.2497-3.3056 1.2632-4.5553 0l-6.45-6.45c-1.2632-1.2631-1.2632-3.3056 0-4.5553l6.45-6.45c1.2631-1.2631 3.3056-1.2631 4.5553 0 1.2497 1.2632 1.2631 3.3057 0 4.5553zm15.05-4.5688 6.45 6.45c1.2631 1.2632 1.2631 3.3057 0 4.5553l-6.45 6.45c-1.2631 1.2632-3.3056 1.2632-4.5553 0-1.2497-1.2631-1.2632-3.3056 0-4.5553l4.1656-4.1656-4.1656-4.1656c-1.2632-1.2631-1.2632-3.3056 0-4.5553 1.2631-1.2497 3.3056-1.2632 4.5553 0z" fill="#7f7f7f"/></svg>

<svg width="86" height="69" viewBox="0 0 86 69" fill="none" xmlns="http://www.w3.org/2000/svg">
<path d="M8.6 13.8998C8.6 9.15637 12.4566 5.2998 17.2 5.2998H68.8C73.5434 5.2998 77.4 9.15637 77.4 13.8998V48.2998H68.8V13.8998H17.2V48.2998H8.6V13.8998ZM0 55.1798C0 53.7554 1.15563 52.5998 2.58 52.5998H83.42C84.8444 52.5998 86 53.7554 86 55.1798C86 60.8773 81.3775 65.4998 75.68 65.4998H10.32C4.6225 65.4998 0 60.8773 0 55.1798ZM37.7594 29.0842L33.5938 33.2498L37.7594 37.4154C39.0225 38.6786 39.0225 40.7211 37.7594 41.9707C36.4963 43.2204 34.4538 43.2339 33.2041 41.9707L26.7541 35.5207C25.4909 34.2576 25.4909 32.2151 26.7541 30.9654L33.2041 24.5154C34.4672 23.2523 36.5097 23.2523 37.7594 24.5154C39.0091 25.7786 39.0225 27.8211 37.7594 29.0707V29.0842ZM52.8094 24.5154L59.2594 30.9654C60.5225 32.2286 60.5225 34.2711 59.2594 35.5207L52.8094 41.9707C51.5463 43.2339 49.5038 43.2339 48.2541 41.9707C47.0044 40.7076 46.9909 38.6651 48.2541 37.4154L52.4197 33.2498L48.2541 29.0842C46.9909 27.8211 46.9909 25.7786 48.2541 24.5289C49.5172 23.2792 51.5597 23.2657 52.8094 24.5289V24.5154Z" fill="#7F7F7F"/>
</svg>
